bernoullicharts/1_1_x_two-coin_special_case__bound.svg

<?xml version="1.0" encoding="utf-8" standalone="no"?>
<!DOCTYPE svg PUBLIC "-//W3C//DTD SVG 1.1//EN"
  "http://www.w3.org/Graphics/SVG/1.1/DTD/svg11.dtd">
<!-- Created with matplotlib (https://matplotlib.org/) -->
<svg height="345.6pt" version="1.1" viewBox="0 0 460.8 345.6" width="460.8pt" xmlns="http://www.w3.org/2000/svg" xmlns:xlink="http://www.w3.org/1999/xlink">
 <defs>
  <style type="text/css">
*{stroke-linecap:butt;stroke-linejoin:round;}
  </style>
 </defs>
 <g id="figure_1">
  <g id="patch_1">
   <path d="M 0 345.6 
L 460.8 345.6 
L 460.8 0 
L 0 0 
z
" style="fill:#ffffff;"/>
  </g>
  <g id="axes_1">
   <g id="patch_2">
    <path d="M 57.6 307.584 
L 414.72 307.584 
L 414.72 41.472 
L 57.6 41.472 
z
" style="fill:#ffffff;"/>
   </g>
   <g id="matplotlib.axis_1">
    <g id="xtick_1">
     <g id="line2d_1">
      <defs>
       <path d="M 0 0 
L 0 3.5 
" id="m191692fa46" style="stroke:#000000;stroke-width:0.8;"/>
      </defs>
      <g>
       <use style="stroke:#000000;stroke-width:0.8;" x="73.800255" xlink:href="#m191692fa46" y="307.584"/>
      </g>
     </g>
     <g id="text_1">
      <text style="font-family:DejaVu Sans;font-size:10px;font-style:normal;font-weight:normal;text-anchor:middle;" transform="rotate(-0, 73.800255, 322.182437)" x="73.800255" y="322.182437">0.0</text>
     </g>
    </g>
    <g id="xtick_2">
     <g id="line2d_2">
      <g>
       <use style="stroke:#000000;stroke-width:0.8;" x="138.744153" xlink:href="#m191692fa46" y="307.584"/>
      </g>
     </g>
     <g id="text_2">
      <text style="font-family:DejaVu Sans;font-size:10px;font-style:normal;font-weight:normal;text-anchor:middle;" transform="rotate(-0, 138.744153, 322.182437)" x="138.744153" y="322.182437">0.2</text>
     </g>
    </g>
    <g id="xtick_3">
     <g id="line2d_3">
      <g>
       <use style="stroke:#000000;stroke-width:0.8;" x="203.688051" xlink:href="#m191692fa46" y="307.584"/>
      </g>
     </g>
     <g id="text_3">
      <text style="font-family:DejaVu Sans;font-size:10px;font-style:normal;font-weight:normal;text-anchor:middle;" transform="rotate(-0, 203.688051, 322.182437)" x="203.688051" y="322.182437">0.4</text>
     </g>
    </g>
    <g id="xtick_4">
     <g id="line2d_4">
      <g>
       <use style="stroke:#000000;stroke-width:0.8;" x="268.631949" xlink:href="#m191692fa46" y="307.584"/>
      </g>
     </g>
     <g id="text_4">
      <text style="font-family:DejaVu Sans;font-size:10px;font-style:normal;font-weight:normal;text-anchor:middle;" transform="rotate(-0, 268.631949, 322.182437)" x="268.631949" y="322.182437">0.6</text>
     </g>
    </g>
    <g id="xtick_5">
     <g id="line2d_5">
      <g>
       <use style="stroke:#000000;stroke-width:0.8;" x="333.575847" xlink:href="#m191692fa46" y="307.584"/>
      </g>
     </g>
     <g id="text_5">
      <text style="font-family:DejaVu Sans;font-size:10px;font-style:normal;font-weight:normal;text-anchor:middle;" transform="rotate(-0, 333.575847, 322.182437)" x="333.575847" y="322.182437">0.8</text>
     </g>
    </g>
    <g id="xtick_6">
     <g id="line2d_6">
      <g>
       <use style="stroke:#000000;stroke-width:0.8;" x="398.519745" xlink:href="#m191692fa46" y="307.584"/>
      </g>
     </g>
     <g id="text_6">
      <text style="font-family:DejaVu Sans;font-size:10px;font-style:normal;font-weight:normal;text-anchor:middle;" transform="rotate(-0, 398.519745, 322.182437)" x="398.519745" y="322.182437">1.0</text>
     </g>
    </g>
    <g id="text_7">
     <text style="font-family:DejaVu Sans;font-size:10px;font-style:normal;font-weight:normal;text-anchor:middle;" transform="rotate(-0, 236.16, 335.860562)" x="236.16" y="335.860562">Input Coin's Heads Probability (λ)</text>
    </g>
   </g>
   <g id="matplotlib.axis_2">
    <g id="ytick_1">
     <g id="line2d_7">
      <defs>
       <path d="M 0 0 
L -3.5 0 
" id="m798dcc84b9" style="stroke:#000000;stroke-width:0.8;"/>
      </defs>
      <g>
       <use style="stroke:#000000;stroke-width:0.8;" x="57.6" xlink:href="#m798dcc84b9" y="295.493827"/>
      </g>
     </g>
     <g id="text_8">
      <text style="font-family:DejaVu Sans;font-size:10px;font-style:normal;font-weight:normal;text-anchor:end;" transform="rotate(-0, 50.6, 299.293046)" x="50.6" y="299.293046">0.0</text>
     </g>
    </g>
    <g id="ytick_2">
     <g id="line2d_8">
      <g>
       <use style="stroke:#000000;stroke-width:0.8;" x="57.6" xlink:href="#m798dcc84b9" y="248.879988"/>
      </g>
     </g>
     <g id="text_9">
      <text style="font-family:DejaVu Sans;font-size:10px;font-style:normal;font-weight:normal;text-anchor:end;" transform="rotate(-0, 50.6, 252.679207)" x="50.6" y="252.679207">0.2</text>
     </g>
    </g>
    <g id="ytick_3">
     <g id="line2d_9">
      <g>
       <use style="stroke:#000000;stroke-width:0.8;" x="57.6" xlink:href="#m798dcc84b9" y="202.266148"/>
      </g>
     </g>
     <g id="text_10">
      <text style="font-family:DejaVu Sans;font-size:10px;font-style:normal;font-weight:normal;text-anchor:end;" transform="rotate(-0, 50.6, 206.065367)" x="50.6" y="206.065367">0.4</text>
     </g>
    </g>
    <g id="ytick_4">
     <g id="line2d_10">
      <g>
       <use style="stroke:#000000;stroke-width:0.8;" x="57.6" xlink:href="#m798dcc84b9" y="155.652309"/>
      </g>
     </g>
     <g id="text_11">
      <text style="font-family:DejaVu Sans;font-size:10px;font-style:normal;font-weight:normal;text-anchor:end;" transform="rotate(-0, 50.6, 159.451527)" x="50.6" y="159.451527">0.6</text>
     </g>
    </g>
    <g id="ytick_5">
     <g id="line2d_11">
      <g>
       <use style="stroke:#000000;stroke-width:0.8;" x="57.6" xlink:href="#m798dcc84b9" y="109.038469"/>
      </g>
     </g>
     <g id="text_12">
      <text style="font-family:DejaVu Sans;font-size:10px;font-style:normal;font-weight:normal;text-anchor:end;" transform="rotate(-0, 50.6, 112.837688)" x="50.6" y="112.837688">0.8</text>
     </g>
    </g>
    <g id="ytick_6">
     <g id="line2d_12">
      <g>
       <use style="stroke:#000000;stroke-width:0.8;" x="57.6" xlink:href="#m798dcc84b9" y="62.42463"/>
      </g>
     </g>
     <g id="text_13">
      <text style="font-family:DejaVu Sans;font-size:10px;font-style:normal;font-weight:normal;text-anchor:end;" transform="rotate(-0, 50.6, 66.223848)" x="50.6" y="66.223848">1.0</text>
     </g>
    </g>
    <g id="text_14">
     <text style="font-family:DejaVu Sans;font-size:10px;font-style:normal;font-weight:normal;text-anchor:middle;" transform="rotate(-90, 28.617187, 174.528)" x="28.617187" y="174.528">Coin Flips Needed</text>
    </g>
   </g>
   <g id="line2d_13">
    <path clip-path="url(#p2062ddbbdd)" d="M 73.832727 62.494534 
L 77.112066 69.436326 
L 80.391405 76.150292 
L 83.670744 82.645761 
L 86.950083 88.931603 
L 90.229421 95.016248 
L 93.50876 100.907716 
L 96.788099 106.61364 
L 100.067438 112.141286 
L 103.346777 117.497578 
L 106.626116 122.689111 
L 109.905455 127.722174 
L 113.184793 132.602767 
L 116.464132 137.336612 
L 119.743471 141.929172 
L 123.02281 146.385664 
L 126.302149 150.711074 
L 129.581488 154.910163 
L 132.860826 158.987485 
L 136.140165 162.947396 
L 139.419504 166.794063 
L 142.698843 170.531473 
L 145.978182 174.163446 
L 149.257521 177.693637 
L 152.53686 181.125551 
L 155.816198 184.462546 
L 159.095537 187.707842 
L 162.374876 190.864527 
L 165.654215 193.935561 
L 168.933554 196.92379 
L 172.212893 199.83194 
L 175.492231 202.662633 
L 178.77157 205.418386 
L 182.050909 208.101617 
L 185.330248 210.71465 
L 188.609587 213.25972 
L 191.888926 215.738976 
L 195.168264 218.154485 
L 198.447603 220.508235 
L 201.726942 222.802142 
L 205.006281 225.038046 
L 208.28562 227.217724 
L 211.564959 229.342884 
L 214.844298 231.415173 
L 218.123636 233.436177 
L 221.402975 235.407427 
L 224.682314 237.330396 
L 227.961653 239.206509 
L 231.240992 241.037135 
L 234.520331 242.823599 
L 237.799669 244.567179 
L 241.079008 246.269108 
L 244.358347 247.930575 
L 247.637686 249.552732 
L 250.917025 251.136688 
L 254.196364 252.683517 
L 257.475702 254.194255 
L 260.755041 255.669905 
L 264.03438 257.111435 
L 267.313719 258.519782 
L 270.593058 259.895852 
L 273.872397 261.240522 
L 277.151736 262.55464 
L 280.431074 263.839026 
L 283.710413 265.094474 
L 286.989752 266.321753 
L 290.269091 267.521608 
L 293.54843 268.694759 
L 296.827769 269.841906 
L 300.107107 270.963723 
L 303.386446 272.060868 
L 306.665785 273.133975 
L 309.945124 274.18366 
L 313.224463 275.21052 
L 316.503802 276.215134 
L 319.78314 277.198063 
L 323.062479 278.159851 
L 326.341818 279.101028 
L 329.621157 280.022104 
L 332.900496 280.923579 
L 336.179835 281.805934 
L 339.459174 282.669637 
L 342.738512 283.515145 
L 346.017851 284.342897 
L 349.29719 285.153325 
L 352.576529 285.946844 
L 355.855868 286.723858 
L 359.135207 287.484762 
L 362.414545 288.229938 
L 365.693884 288.959756 
L 368.973223 289.674579 
L 372.252562 290.374756 
L 375.531901 291.06063 
L 378.81124 291.732531 
L 382.090579 292.390784 
L 385.369917 293.035701 
L 388.649256 293.667588 
L 391.928595 294.286742 
L 395.207934 294.893452 
L 398.487273 295.488 
" style="fill:none;stroke:#1f77b4;stroke-linecap:square;stroke-width:1.5;"/>
   </g>
   <g id="line2d_14">
    <path clip-path="url(#p2062ddbbdd)" d="M 73.832727 64.755321 
L 77.112066 94.12204 
L 80.391405 72.679674 
L 83.670744 60.093938 
L 86.950083 88.062241 
L 90.229421 56.36483 
L 93.50876 71.747397 
L 96.788099 73.611951 
L 100.067438 93.189764 
L 103.346777 53.568 
L 106.626116 80.604027 
L 109.905455 105.7755 
L 113.184793 89.926795 
L 116.464132 85.731549 
L 119.743471 95.520456 
L 123.02281 88.062241 
L 126.302149 106.241639 
L 129.581488 85.265411 
L 132.860826 110.903023 
L 136.140165 89.926795 
L 139.419504 101.114116 
L 142.698843 107.640054 
L 145.978182 108.106192 
L 149.257521 127.684005 
L 152.53686 112.767576 
L 155.816198 102.97867 
L 159.095537 108.572331 
L 162.374876 115.098268 
L 165.654215 89.460656 
L 168.933554 114.165991 
L 172.212893 114.165991 
L 175.492231 128.616282 
L 178.77157 115.098268 
L 182.050909 132.345389 
L 185.330248 108.106192 
L 188.609587 117.42896 
L 191.888926 123.954898 
L 195.168264 125.819451 
L 198.447603 118.827375 
L 201.726942 130.480835 
L 205.006281 135.142219 
L 208.28562 123.022621 
L 211.564959 143.066572 
L 214.844298 122.090344 
L 218.123636 130.480835 
L 221.402975 142.600434 
L 224.682314 138.405188 
L 227.961653 128.616282 
L 231.240992 137.006773 
L 234.520331 138.405188 
L 237.799669 132.345389 
L 241.079008 134.676081 
L 244.358347 137.006773 
L 247.637686 144.931126 
L 250.917025 143.53271 
L 254.196364 151.457063 
L 257.475702 144.464987 
L 260.755041 149.592509 
L 264.03438 163.110523 
L 267.313719 160.779831 
L 270.593058 143.066572 
L 273.872397 154.253893 
L 277.151736 164.508938 
L 280.431074 160.779831 
L 283.710413 156.118447 
L 286.989752 152.855478 
L 290.269091 155.652309 
L 293.54843 151.457063 
L 296.827769 151.457063 
L 300.107107 157.050724 
L 303.386446 163.576661 
L 306.665785 165.907353 
L 309.945124 168.238045 
L 313.224463 150.524786 
L 316.503802 152.38934 
L 319.78314 160.313693 
L 323.062479 157.050724 
L 326.341818 171.967152 
L 329.621157 160.779831 
L 332.900496 170.568737 
L 336.179835 174.297844 
L 339.459174 178.49309 
L 342.738512 165.441215 
L 346.017851 164.0428 
L 349.29719 159.847554 
L 352.576529 172.433291 
L 355.855868 168.238045 
L 359.135207 178.49309 
L 362.414545 166.373492 
L 365.693884 165.441215 
L 368.973223 171.034876 
L 372.252562 178.026952 
L 375.531901 167.771907 
L 378.81124 172.899429 
L 382.090579 165.441215 
L 385.369917 170.568737 
L 388.649256 186.883581 
L 391.928595 185.019028 
L 395.207934 180.823782 
L 398.487273 181.28992 
" style="fill:none;stroke:#ff7f0e;stroke-linecap:square;stroke-width:1.5;"/>
   </g>
   <g id="patch_3">
    <path d="M 57.6 307.584 
L 57.6 41.472 
" style="fill:none;stroke:#000000;stroke-linecap:square;stroke-linejoin:miter;stroke-width:0.8;"/>
   </g>
   <g id="patch_4">
    <path d="M 414.72 307.584 
L 414.72 41.472 
" style="fill:none;stroke:#000000;stroke-linecap:square;stroke-linejoin:miter;stroke-width:0.8;"/>
   </g>
   <g id="patch_5">
    <path d="M 57.6 307.584 
L 414.72 307.584 
" style="fill:none;stroke:#000000;stroke-linecap:square;stroke-linejoin:miter;stroke-width:0.8;"/>
   </g>
   <g id="patch_6">
    <path d="M 57.6 41.472 
L 414.72 41.472 
" style="fill:none;stroke:#000000;stroke-linecap:square;stroke-linejoin:miter;stroke-width:0.8;"/>
   </g>
   <g id="text_15">
    <text style="font-family:DejaVu Sans;font-size:12px;font-style:normal;font-weight:normal;text-anchor:middle;" transform="rotate(-0, 236.16, 35.472)" x="236.16" y="35.472">Coin Flips for 1/(1+x)</text>
   </g>
   <g id="legend_1">
    <g id="patch_7">
     <path d="M 119.748125 78.82825 
L 407.72 78.82825 
Q 409.72 78.82825 409.72 76.82825 
L 409.72 48.472 
Q 409.72 46.472 407.72 46.472 
L 119.748125 46.472 
Q 117.748125 46.472 117.748125 48.472 
L 117.748125 76.82825 
Q 117.748125 78.82825 119.748125 78.82825 
z
" style="fill:#ffffff;opacity:0.8;stroke:#cccccc;stroke-linejoin:miter;"/>
    </g>
    <g id="line2d_15">
     <path d="M 121.748125 54.570437 
L 141.748125 54.570437 
" style="fill:none;stroke:#1f77b4;stroke-linecap:square;stroke-width:1.5;"/>
    </g>
    <g id="line2d_16"/>
    <g id="text_16">
     <text style="font-family:DejaVu Sans;font-size:10px;font-style:normal;font-weight:normal;text-anchor:start;" transform="rotate(-0, 149.748125, 58.070437)" x="149.748125" y="58.070437">Coin Flip Lower Bound (Mendo)</text>
    </g>
    <g id="line2d_17">
     <path d="M 121.748125 69.248562 
L 141.748125 69.248562 
" style="fill:none;stroke:#ff7f0e;stroke-linecap:square;stroke-width:1.5;"/>
    </g>
    <g id="line2d_18"/>
    <g id="text_17">
     <text style="font-family:DejaVu Sans;font-size:10px;font-style:normal;font-weight:normal;text-anchor:start;" transform="rotate(-0, 149.748125, 72.748562)" x="149.748125" y="72.748562">Avg. Coins Flipped 1/(1+x) (Two-Coin Special Case)</text>
    </g>
   </g>
  </g>
 </g>
 <defs>
  <clipPath id="p2062ddbbdd">
   <rect height="266.112" width="357.12" x="57.6" y="41.472"/>
  </clipPath>
 </defs>
</svg>

<svg height="460.8" viewBox="0 0 460.8 345.6" width="614.4" xmlns="http://www.w3.org/2000/svg" xmlns:xlink="http://www.w3.org/1999/xlink"><defs><style>*{stroke-linecap:butt;stroke-linejoin:round}</style></defs><g id="figure_1"><path d="M0 345.6h460.8V0H0z" fill="#fff" id="patch_1"/><g id="axes_1"><path d="M57.6 307.584h357.12V41.472H57.6z" fill="#fff" id="patch_2"/><g id="matplotlib.axis_1"><g id="xtick_1"><g id="line2d_1"><defs><path d="M0 0v3.5" id="m191692fa46" stroke="#000" stroke-width=".8"/></defs><use x="73.8" xlink:href="#m191692fa46" y="307.584" stroke="#000" stroke-width=".8"/></g><text x="73.8" y="322.182" font-family="DejaVu Sans" font-size="10" font-weight="400" text-anchor="middle" id="text_1">0.0</text></g><g id="xtick_2"><use x="138.744" xlink:href="#m191692fa46" y="307.584" stroke="#000" stroke-width=".8" id="line2d_2"/><text x="138.744" y="322.182" font-family="DejaVu Sans" font-size="10" font-weight="400" text-anchor="middle" id="text_2">0.2</text></g><g id="xtick_3"><use x="203.688" xlink:href="#m191692fa46" y="307.584" stroke="#000" stroke-width=".8" id="line2d_3"/><text x="203.688" y="322.182" font-family="DejaVu Sans" font-size="10" font-weight="400" text-anchor="middle" id="text_3">0.4</text></g><g id="xtick_4"><use x="268.632" xlink:href="#m191692fa46" y="307.584" stroke="#000" stroke-width=".8" id="line2d_4"/><text x="268.632" y="322.182" font-family="DejaVu Sans" font-size="10" font-weight="400" text-anchor="middle" id="text_4">0.6</text></g><g id="xtick_5"><use x="333.576" xlink:href="#m191692fa46" y="307.584" stroke="#000" stroke-width=".8" id="line2d_5"/><text x="333.576" y="322.182" font-family="DejaVu Sans" font-size="10" font-weight="400" text-anchor="middle" id="text_5">0.8</text></g><g id="xtick_6"><use x="398.52" xlink:href="#m191692fa46" y="307.584" stroke="#000" stroke-width=".8" id="line2d_6"/><text x="398.52" y="322.182" font-family="DejaVu Sans" font-size="10" font-weight="400" text-anchor="middle" id="text_6">1.0</text></g><text x="236.16" y="335.861" font-family="DejaVu Sans" font-size="10" font-weight="400" text-anchor="middle" id="text_7">Input Coin&apos;s Heads Probability (λ)</text></g><g id="matplotlib.axis_2"><g id="ytick_1"><g id="line2d_7"><defs><path d="M0 0h-3.5" id="m798dcc84b9" stroke="#000" stroke-width=".8"/></defs><use x="57.6" xlink:href="#m798dcc84b9" y="295.494" stroke="#000" stroke-width=".8"/></g><text x="50.6" y="299.293" font-family="DejaVu Sans" font-size="10" font-weight="400" text-anchor="end" id="text_8">0.0</text></g><g id="ytick_2"><use x="57.6" xlink:href="#m798dcc84b9" y="248.88" stroke="#000" stroke-width=".8" id="line2d_8"/><text x="50.6" y="252.679" font-family="DejaVu Sans" font-size="10" font-weight="400" text-anchor="end" id="text_9">0.2</text></g><g id="ytick_3"><use x="57.6" xlink:href="#m798dcc84b9" y="202.266" stroke="#000" stroke-width=".8" id="line2d_9"/><text x="50.6" y="206.065" font-family="DejaVu Sans" font-size="10" font-weight="400" text-anchor="end" id="text_10">0.4</text></g><g id="ytick_4"><use x="57.6" xlink:href="#m798dcc84b9" y="155.652" stroke="#000" stroke-width=".8" id="line2d_10"/><text x="50.6" y="159.452" font-family="DejaVu Sans" font-size="10" font-weight="400" text-anchor="end" id="text_11">0.6</text></g><g id="ytick_5"><use x="57.6" xlink:href="#m798dcc84b9" y="109.038" stroke="#000" stroke-width=".8" id="line2d_11"/><text x="50.6" y="112.838" font-family="DejaVu Sans" font-size="10" font-weight="400" text-anchor="end" id="text_12">0.8</text></g><g id="ytick_6"><use x="57.6" xlink:href="#m798dcc84b9" y="62.425" stroke="#000" stroke-width=".8" id="line2d_12"/><text x="50.6" y="66.224" font-family="DejaVu Sans" font-size="10" font-weight="400" text-anchor="end" id="text_13">1.0</text></g><text transform="rotate(-90 28.617 174.528)" x="28.617" y="174.528" font-family="DejaVu Sans" font-size="10" font-weight="400" text-anchor="middle" id="text_14">Coin Flips Needed</text></g><path clip-path="url(#p2062ddbbdd)" d="M73.833 62.495l3.28 6.941 3.278 6.714 3.28 6.496 3.28 6.286 3.278 6.084 3.28 5.892 3.28 5.706 3.278 5.527 3.28 5.357 3.28 5.191 3.278 5.033 3.28 4.88 3.28 4.735 3.278 4.592 3.28 4.457 3.28 4.325 3.278 4.2 3.28 4.076 3.28 3.96 3.279 3.847 3.279 3.737 3.28 3.632 3.279 3.53 3.279 3.433 3.28 3.337 3.279 3.245 3.279 3.157 3.28 3.07 3.279 2.989 3.279 2.908 3.28 2.83 3.279 2.756 3.279 2.684 3.28 2.613 3.279 2.545 3.279 2.479 3.28 2.415 3.279 2.354 3.279 2.294 3.28 2.236 3.279 2.18 3.279 2.125 3.28 2.072 3.279 2.021 3.279 1.971 3.28 1.923 3.279 1.877 3.279 1.83 3.28 1.787 3.279 1.743 3.279 1.702 3.28 1.662 3.279 1.622 3.279 1.584 3.28 1.547 3.279 1.51 3.279 1.476 3.28 1.441 3.279 1.409 3.28 1.376 3.278 1.345 3.28 1.314 3.28 1.284 3.278 1.255 3.28 1.228 3.28 1.2 3.278 1.173 3.28 1.147 3.28 1.122 3.278 1.097 3.28 1.073 3.28 1.05 3.278 1.027 3.28 1.004 3.28.983 3.278.962 3.28.941 3.28.921 3.278.902 3.28.882 3.28.864 3.279.845 3.279.828 3.28.81 3.279.794 3.279.777 3.28.76 3.279.746 3.279.73 3.28.715 3.279.7 3.279.686 3.28.672 3.279.658 3.279.645 3.28.632 3.279.619 3.279.606 3.28.595" fill="none" stroke="#1f77b4" stroke-linecap="square" stroke-width="1.5" id="line2d_13"/><path clip-path="url(#p2062ddbbdd)" d="M73.833 64.755l3.28 29.367L80.39 72.68l3.28-12.586 3.28 27.968 3.278-31.697 3.28 15.382 3.28 1.865 3.278 19.578 3.28-39.622 3.28 27.036 3.278 25.171 3.28-15.848 3.28-4.195 3.278 9.788 3.28-7.458 3.28 18.18 3.278-20.977 3.28 25.638 3.28-20.976 3.279 11.187 3.279 6.526 3.28.466 3.279 19.578 3.279-14.916 3.28-9.79 3.279 5.594 3.279 6.526 3.28-25.637 3.279 24.705h3.279l3.28 14.45 3.279-13.518 3.279 17.247 3.28-24.239 3.279 9.323 3.279 6.526 3.28 1.864 3.279-6.992 3.279 11.654 3.28 4.661 3.279-12.12 3.279 20.045 3.28-20.977 3.279 8.39 3.279 12.12 3.28-4.195 3.279-9.789 3.279 8.39 3.28 1.4 3.279-6.06 3.279 2.33 3.28 2.33 3.279 7.925 3.279-1.398 3.28 7.924 3.279-6.992 3.279 5.128 3.28 13.518 3.279-2.331 3.28-17.713 3.278 11.187 3.28 10.255 3.28-3.73 3.278-4.66 3.28-3.264 3.28 2.797 3.278-4.195h3.28l3.28 5.594 3.278 6.526 3.28 2.33 3.28 2.331 3.278-17.713 3.28 1.864 3.28 7.925 3.278-3.263 3.28 14.916 3.28-11.187 3.278 9.789 3.28 3.729 3.28 4.195 3.279-13.052 3.279-1.398 3.28-4.195 3.279 12.585 3.279-4.195 3.28 10.255 3.279-12.12 3.279-.932 3.28 5.594 3.279 6.992 3.279-10.255 3.28 5.127 3.279-7.458 3.279 5.128 3.28 16.315 3.279-1.865 3.279-4.195 3.28.466" fill="none" stroke="#ff7f0e" stroke-linecap="square" stroke-width="1.5" id="line2d_14"/><path d="M57.6 307.584V41.472" fill="none" stroke="#000" stroke-linecap="square" stroke-width=".8" id="patch_3"/><path d="M414.72 307.584V41.472" fill="none" stroke="#000" stroke-linecap="square" stroke-width=".8" id="patch_4"/><path d="M57.6 307.584h357.12" fill="none" stroke="#000" stroke-linecap="square" stroke-width=".8" id="patch_5"/><path d="M57.6 41.472h357.12" fill="none" stroke="#000" stroke-linecap="square" stroke-width=".8" id="patch_6"/><text x="236.16" y="35.472" font-family="DejaVu Sans" font-size="12" font-weight="400" text-anchor="middle" id="text_15">Coin Flips for 1/(1+x)</text><g id="legend_1"><path d="M119.748 78.828H407.72q2 0 2-2V48.472q0-2-2-2H119.748q-2 0-2 2v28.356q0 2 2 2z" fill="#fff" opacity=".8" stroke="#ccc" id="patch_7"/><path d="M121.748 54.57h20" fill="none" stroke="#1f77b4" stroke-linecap="square" stroke-width="1.5" id="line2d_15"/><text x="149.748" y="58.07" font-family="DejaVu Sans" font-size="10" font-weight="400" id="text_16">Coin Flip Lower Bound (Mendo)</text><path d="M121.748 69.249h20" fill="none" stroke="#ff7f0e" stroke-linecap="square" stroke-width="1.5" id="line2d_17"/><text x="149.748" y="72.749" font-family="DejaVu Sans" font-size="10" font-weight="400" id="text_17">Avg. Coins Flipped 1/(1+x) (Two-Coin Special Case)</text></g></g></g><defs><clipPath id="p2062ddbbdd"><path d="M57.6 41.472h357.12v266.112H57.6z"/></clipPath></defs></svg>
